icons/gentoo-light.svg

<svg width="256" height="256" viewBox="0 0 256 256" fill="none" xmlns="http://www.w3.org/2000/svg">
<path d="M196 0H60C26.8629 0 0 26.8629 0 60V196C0 229.137 26.8629 256 60 256H196C229.137 256 256 229.137 256 196V60C256 26.8629 229.137 0 196 0Z" fill="#F4F2ED"/>
<path fill-rule="evenodd" clip-rule="evenodd" d="M45.0316 179.974C45.0506 172.623 51.2646 162.36 60.0949 153.035C65.9967 146.803 71.9902 141.333 85.0548 130.132C76.0184 125.146 61.9629 119.13 54.9059 111.25C52.2963 108.336 47.5677 101.729 48.4836 92.9048C50.3532 74.9181 72.4273 47.6371 103.798 41.8422C114.238 39.922 126.225 41.3081 136.091 45.7671C167.047 59.7589 204.879 94.5341 209.556 111.499C211.195 117.473 210.88 126.997 208.054 132.305C204.552 138.884 192.426 152.243 175.845 166.039C149.816 187.67 113.348 210.886 86.0945 214.806C77.2948 216.068 68.3031 214.751 61.9949 211.172C52.1234 205.57 48.8468 198.093 47.6943 195.85C44.6321 189.89 45.0116 182.337 45.0182 179.969L45.0316 179.974ZM118.274 97.3896C118.61 93.2211 134.863 97.3712 133.836 100.673C132.752 104.156 117.887 102.172 118.274 97.3896Z" fill="url(#paint0_linear_687_35)"/>
<path fill-rule="evenodd" clip-rule="evenodd" d="M93.8433 123.257C85.2913 130.519 79.604 135.415 72.4746 141.969C55.3039 157.749 43.6341 169.762 49.6527 186.173C56.59 205.114 71.8009 204.154 89.6285 200.632C135.59 191.514 211.171 133.08 207.329 111.524C204.211 94.0639 161.98 59.3419 137.009 46.9962C129.201 43.1357 120.201 41.1425 111.173 41.568C76.7923 43.1995 49.9561 74.6579 51.3202 91.7348C52.6542 108.325 94.3583 122.781 93.8572 123.285L93.8433 123.257ZM88.6848 65.3356C78.3429 76.9087 84.9545 99.2934 102.106 111.499C122.177 125.779 154.664 128.363 161.151 117.353C173.216 96.813 160.043 75.0806 140.381 65.3944C120.949 55.8202 95.1433 58.113 88.6848 65.3258V65.3356Z" fill="url(#paint1_linear_687_35)"/>
<path fill-rule="evenodd" clip-rule="evenodd" d="M123.965 111.023C138.485 113.053 151.001 107.205 152.944 92.7872C154.435 81.8048 137.719 69.8034 127.67 67.0347C119.277 64.7235 101.056 67.6954 99.8315 83.6581C98.5546 100.251 115.488 109.842 123.953 111.023H123.965ZM116.855 83.4257C107.312 98.291 130.71 102.863 134.293 100.153C149.737 88.4648 121.058 76.8777 116.855 83.4257Z" fill="url(#paint2_radial_687_35)"/>
<path fill-rule="evenodd" clip-rule="evenodd" d="M108.403 45.5067C91.5246 47.2956 88.2898 49.4792 72.9927 61.1139C67.8676 65.0135 58.436 74.501 56.0169 85.7577C55.0962 90.0437 56.1844 93.7447 59.2544 96.3398C69.0842 104.651 85.5394 111.393 99.0354 117.913C102.988 119.822 100.371 123.285 93.9967 128.833C77.9089 142.839 56.1644 159.88 54.6333 172.869C53.9178 178.992 56.0018 187.309 63.3912 191.567C72.0239 196.539 89.9406 193.294 101.919 188.814C119.405 182.266 142.369 167.818 160.603 153.624C179.563 138.854 197.182 120.086 198.073 117.035C199.144 113.278 199.037 109.807 196.971 105.817C193.725 99.5522 189.387 94.8966 184.727 89.684C172.228 76.4312 159.002 64.7882 143.165 55.8662C131.737 49.4218 121.685 44.1 108.395 45.5081L108.403 45.5067ZM133.199 75.2093C145.395 81.1386 157.916 96.7121 133.09 105.668C126.339 108.105 104.918 99.6824 105.586 88.1877C106.541 71.206 118.311 67.9642 133.198 75.2037L133.199 75.2093Z" fill="url(#paint3_radial_687_35)"/>
<defs>
<linearGradient id="paint0_linear_687_35" x1="19.1209" y1="-357.443" x2="129.157" y2="215.277" gradientUnits="userSpaceOnUse">
<stop stop-color="white"/>
<stop offset="0.3421" stop-color="white"/>
<stop offset="0.52" stop-color="#BEBDF3"/>
<stop offset="0.7541" stop-color="#8F82F9"/>
<stop offset="0.8711" stop-color="#9F99C7"/>
<stop offset="1" stop-color="#524C76"/>
</linearGradient>
<linearGradient id="paint1_linear_687_35" x1="152.796" y1="169.752" x2="119.591" y2="21.7201" gradientUnits="userSpaceOnUse">
<stop stop-color="white"/>
<stop offset="0.3421" stop-color="white"/>
<stop offset="0.52" stop-color="#BEBDF3"/>
<stop offset="0.7541" stop-color="#8F82F9"/>
<stop offset="0.8711" stop-color="#9F99C7"/>
<stop offset="1" stop-color="#524C76"/>
</linearGradient>
<radialGradient id="paint2_radial_687_35" cx="0" cy="0" r="1" gradientUnits="userSpaceOnUse" gradientTransform="translate(114.278 79.7674) scale(29.2357 22.5398)">
<stop stop-color="white"/>
<stop offset="0.3421" stop-color="white"/>
<stop offset="0.52" stop-color="#BEBDF3"/>
<stop offset="0.7541" stop-color="#8F82F9"/>
<stop offset="0.8711" stop-color="#9F99C7"/>
<stop offset="1" stop-color="#524C76"/>
</radialGradient>
<radialGradient id="paint3_radial_687_35" cx="0" cy="0" r="1" gradientUnits="userSpaceOnUse" gradientTransform="translate(47.6665 86.9979) rotate(90.8979) scale(255.742 216.924)">
<stop stop-color="white"/>
<stop offset="0.3421" stop-color="white"/>
<stop offset="0.52" stop-color="#BEBDF3"/>
<stop offset="0.7541" stop-color="#8F82F9"/>
<stop offset="0.8711" stop-color="#9F99C7"/>
<stop offset="1" stop-color="#524C76"/>
</radialGradient>
</defs>
</svg>

<svg xmlns="http://www.w3.org/2000/svg" width="256" height="256" fill="none"><path fill="#F4F2ED" d="M196 0H60C26.863 0 0 26.863 0 60v136c0 33.137 26.863 60 60 60h136c33.137 0 60-26.863 60-60V60c0-33.137-26.863-60-60-60"/><path fill="url(#paint0_linear_687_35)" fill-rule="evenodd" d="M45.032 179.974c.019-7.351 6.233-17.614 15.063-26.939 5.902-6.232 11.895-11.702 24.96-22.903-9.037-4.986-23.092-11.002-30.15-18.882-2.609-2.914-7.337-9.521-6.421-18.345 1.87-17.987 23.943-45.268 55.314-51.063 10.44-1.92 22.427-.534 32.293 3.925 30.956 13.992 68.788 48.767 73.465 65.732 1.639 5.974 1.324 15.498-1.502 20.806-3.502 6.579-15.628 19.938-32.209 33.734-26.029 21.631-62.497 44.847-89.75 48.767-8.8 1.262-17.792-.055-24.1-3.634-9.872-5.602-13.148-13.079-14.3-15.322-3.063-5.96-2.683-13.513-2.677-15.881zm73.242-82.584c.336-4.169 16.589-.019 15.562 3.283-1.084 3.483-15.949 1.499-15.562-3.283" clip-rule="evenodd"/><path fill="url(#paint1_linear_687_35)" fill-rule="evenodd" d="M93.843 123.257c-8.552 7.262-14.239 12.158-21.368 18.712-17.171 15.78-28.84 27.793-22.822 44.204 6.937 18.941 22.148 17.981 39.976 14.459 45.961-9.118 121.542-67.552 117.7-89.108-3.118-17.46-45.349-52.182-70.32-64.528-7.808-3.86-16.808-5.854-25.836-5.428-34.38 1.632-61.217 33.09-59.853 50.167 1.334 16.59 43.038 31.046 42.537 31.55zm-5.158-57.921c-10.342 11.573-3.73 33.957 13.421 46.163 20.071 14.28 52.558 16.864 59.045 5.854 12.065-20.54-1.108-42.272-20.77-51.959-19.432-9.574-45.238-7.281-51.696-.068z" clip-rule="evenodd"/><path fill="url(#paint2_radial_687_35)" fill-rule="evenodd" d="M123.965 111.023c14.52 2.03 27.036-3.818 28.979-18.236 1.491-10.982-15.225-22.984-25.274-25.752-8.393-2.311-26.614.66-27.838 16.623-1.277 16.593 15.656 26.184 24.121 27.365zm-7.11-27.597c-9.543 14.865 13.855 19.437 17.438 16.727 15.444-11.688-13.235-23.275-17.438-16.727" clip-rule="evenodd"/><path fill="url(#paint3_radial_687_35)" fill-rule="evenodd" d="M108.403 45.507c-16.878 1.789-20.113 3.972-35.41 15.607-5.125 3.9-14.557 13.387-16.976 24.644-.92 4.286.167 7.987 3.237 10.582 9.83 8.311 26.285 15.053 39.781 21.573 3.953 1.909 1.336 5.372-5.038 10.92-16.088 14.006-37.833 31.047-39.364 44.036-.715 6.123 1.369 14.44 8.758 18.698 8.633 4.972 26.55 1.727 38.528-2.753 17.486-6.548 40.45-20.996 58.684-35.19 18.96-14.77 36.579-33.538 37.47-36.589 1.071-3.757.964-7.228-1.102-11.218-3.246-6.265-7.584-10.92-12.244-16.133-12.499-13.253-25.725-24.896-41.562-33.818-11.428-6.444-21.48-11.766-34.77-10.358zm24.796 29.702c12.196 5.93 24.717 21.503-.109 30.459-6.751 2.437-28.172-5.986-27.504-17.48.955-16.982 12.725-20.224 27.612-12.984z" clip-rule="evenodd"/><defs><radialGradient id="paint2_radial_687_35" cx="0" cy="0" r="1" gradientTransform="matrix(29.2357 0 0 22.5398 114.278 79.767)" gradientUnits="userSpaceOnUse"><stop stop-color="#fff"/><stop offset=".342" stop-color="#fff"/><stop offset=".52" stop-color="#BEBDF3"/><stop offset=".754" stop-color="#8F82F9"/><stop offset=".871" stop-color="#9F99C7"/><stop offset="1" stop-color="#524C76"/></radialGradient><radialGradient id="paint3_radial_687_35" cx="0" cy="0" r="1" gradientTransform="matrix(-4.0081 255.71059 -216.89736 -3.39972 47.666 87)" gradientUnits="userSpaceOnUse"><stop stop-color="#fff"/><stop offset=".342" stop-color="#fff"/><stop offset=".52" stop-color="#BEBDF3"/><stop offset=".754" stop-color="#8F82F9"/><stop offset=".871" stop-color="#9F99C7"/><stop offset="1" stop-color="#524C76"/></radialGradient><linearGradient id="paint0_linear_687_35" x1="19.121" x2="129.157" y1="-357.443" y2="215.277" gradientUnits="userSpaceOnUse"><stop stop-color="#fff"/><stop offset=".342" stop-color="#fff"/><stop offset=".52" stop-color="#BEBDF3"/><stop offset=".754" stop-color="#8F82F9"/><stop offset=".871" stop-color="#9F99C7"/><stop offset="1" stop-color="#524C76"/></linearGradient><linearGradient id="paint1_linear_687_35" x1="152.796" x2="119.591" y1="169.752" y2="21.72" gradientUnits="userSpaceOnUse"><stop stop-color="#fff"/><stop offset=".342" stop-color="#fff"/><stop offset=".52" stop-color="#BEBDF3"/><stop offset=".754" stop-color="#8F82F9"/><stop offset=".871" stop-color="#9F99C7"/><stop offset="1" stop-color="#524C76"/></linearGradient></defs></svg>
